X:440
%%etbk:tnset id:132,pos:3,rep:3x,ant:
%%etbk:tnset id:504,pos:1,rep:3x,ant:
%%etbk:wsite http://thesession.org/tunes/172
%%etbk:pldat 2016-09-04T13:43,2016-07-26T15:22,2016-07-19T20:27,2016-07-09T13:23,2016-07-05T17:14,2016-06-16T19:21,2016-06-12T13:25,2016-05-30T19:07,2016-05-24T16:05,2016-05-23T18:12,2016-05-15T16:11,2016-05-14T17:32,2016-05-12T19:06,2016-04-23T15:46,2016-04-21T18:57,2016-04-18T18:49,2016-04-11T18:27,2016-04-07T17:25,2016-04-02T15:26,2016-03-25T15:54,2016-03-23T17:24,2016-03-22T16:07,2016-03-21T18:30,2016-03-20T10:36,2016-03-17T17:33,2016-03-16T16:52,2016-03-15T15:46,2016-03-14T18:30,2016-02-13T14:59,2016-02-10T17:14,2016-02-08T19:08,2016-01-27T17:28,2016-01-20T17:53,2016-01-17T14:58,2015-03-06T17:41,2015-01-24T13:38,2015-01-20T17:36,2014-12-10T16:42,2014-09-15T19:05,2014-09-10T16:49,2014-08-31T14:39,2014-08-26T17:29,2014-06-22T16:50,2014-06-09T16:06,2014-05-28T17:10,2014-05-20T17:27,2014-04-27T15:14,2014-04-12T13:19,2014-04-06T16:16,2014-03-22T16:48,2014-03-21T16:50,2014-03-19T19:14,2014-03-01T18:04,2014-02-26T19:02,2014-02-15T16:45,2014-02-14T16:32,2014-02-11T17:43,2013-11-25T20:00,2013-11-21T18:14,2013-11-16T16:09,2013-10-08T17:06,2013-10-03T19:21,2013-09-16T15:23,2013-09-04T17:59,2013-05-22T16:41
T: The Iron Man
Z: Piano Box Version by Martin Fleischmann
H: Created 2013-02-19 /  Last Modified 2013-02-19
R: strathspey
M: 4/4
L: 1/8
K:Amaj
|: "A"!3!A2!5!c>A "E"!4!B<!2!GA>!4!B | "A"!3!c2!5!e>c "E"!4!d<!1!B!2!c>!4!e | "D"!5!f2!3!d>f "A"!4!e{f}e !2!c>!4!e | "E"!3!(3dcB !3!(3cB!1!A !2!G<!4!BB>!5!c|
"A"!3!A2!5!c>A "E"!4!B<!1!EA>!4!B | "A"!3!c2!5!e>c "E"!4!d<!1!B!2!c>!4!e | "D"!3!f2!1!d>!3!f "A"!2!e<!5!a!2!c>!1!A |1 "E"!2!(3Bcd !4!(3dcB !3!c<!1!A!3!A>!1!E:|2 "E"!2!(3Bcd !4!(3dcB !3!c<!1!AA>!2!e ||
|: "A"!5!a>Ag>A !3!f<!5!a!2!e>!1!d | !3!(3cB!1!A !2!c>!3!e !5!a>!3!e!2!c>!1!A | "E"!4!d>Ec>E !2!B<Ec>E | !4!d/c/B !3!c/B/A !2!(3Bc!4!d !2!(3efg |
"A"!5!a>Ag>A !3!f>A!2!e>A | !3!(3cB!1!A !2!c>!3!e !5!a>!3!e!2!c>!1!A | "D"!2!d2!4!f>!1!d "A"!2!(3e!5!ag !3!(3fe!1!d |1 "E"!3!(3cB!1!A !2!(3G!1!AB "A"!3!c<!1!AA>!2!e:|2 "E"!3!(3cB!1!A !2!(3G!1!AB "A"!3!c<!1!A!3!A>!1!E||


